!!!COM: Giovanni Maria Nanino
!!!OPR: Regole di contrappunto di Gio. M. Nanino e del suo fratello minore.
!!!OTL: [Didactic example]
!!!YOR: MS ca. 1580-ca.1610.
!!!YOR: Bologna, Civico Museo Bibliografico Musicale.
!!!ONB: Reprinted (without acknowledgement) by Rocco Rodio "Regole di musica"
!!!ONB: [3rd edition].  Naples: Gio. Giocomo Carlino & Costantino Vitale, 1619.
!!!ONB: Encoded from Rodio, p. 18.
!!!ONB: Canon at the seventh above after a semibreve with the cantus firmus below.
**kern	**kern	**kern
*k[]	*k[]	*k[]
*M4/4	*M4/4	*M4/4
*CF	*guida	*conseq
=1	=1	=1
1A	2.c	1r
.	4d	.
=2	=2	=2
1E	4e	2.b
.	4f	.
.	4g	.
.	4a	4cc
=3	=3	=3
1D	1b-	4dd
.	.	4ee
.	.	4ff
.	.	4gg
=4	=4	=4
1F	1a	1aa
=5	=5	=5
1E	1r	1gg
=6	=6	=6
1D	1d	1r
=7	=7	=7
1F	2c	1cc
.	2A	.
=8	=8	=8
1G	2.d	2b
.	.	2g
.	4e	.
=9	=9	=9
1A	2f	2.cc
.	2f	.
.	.	4dd
=10	=10	=10
1c	2.e	2ee
.	.	2ee
.	4f	.
=11	=11	=11
1B	1g	2.dd
.	.	4ee
=12	=12	=12
1A	1a	1ff
=13	=13	=13
1c	1g	1gg
=14	=14	=14
1d	1r	1ff
=15	=15	=15
1G	2g	1r
.	2d	.
=16	=16	=16
1A	2f	2ff
.	2e	2cc
=17	=17	=17
1G	1g	2ee
.	.	2dd
=18	=18	=18
1d	4f	1ff
.	4g	.
.	4a	.
.	4f	.
=19	=19	=19
1c	2g	4ee
.	.	4ff
.	2g	4gg
.	.	4ee
=20	=20	=20
1d	2f	2ff
.	2f	2ff
=21	=21	=21
1G	4g	2ee
.	4a	.
.	4b	2ee
.	4g	.
=22	=22	=22
1F	1a	4ff
.	.	4gg
.	.	4aa
.	.	4ff
=23	=23	=23
1B-	2g	1gg
.	2d	.
=24	=24	=24
1A	2r	2ff
.	2e	2cc
=25	=25	=25
1D	2d	2r
.	2A	2dd
=26	=26	=26
1E	2r	2cc
.	2e	2g
=27	=27	=27
1G	2d	2r
.	2d	2dd
=28	=28	=28
1A	1f	2cc
.	.	2cc
=29	=29	=29
1c	1e	1ee
=30	=30	=30
1B	1r	1dd
=31	=31	=31
1A	2e	1r
.	2f	.
=32	=32	=32
1G	2g	2dd
.	2e	2ee
=33	=33	=33
1F	2c	2ff
.	2d	2dd
=34	=34	=34
1E	1e	2b
.	.	2cc
=35	=35	=35
1D	1A	1dd
=36	=36	=36
1E	1e	1g
=37	=37	=37
[1D	[1f#	[1dd
=38	=38	=38
1D]	1f#]	1dd]
==	==	==
*-	*-	*-
!!!CDT: 1545///-1607/3/11
!!!OCY: Italia
!!!ODT: 1586
!!!AFR: cantus firmus canon
!!!AST: polyphony
!!!AMT: simple quadruple
!!!AIN: vox
!!!YEP: David Huron and Denis Collins
!!!YEN: Canada
!!!EEV: 1.0
!!!RDT: 1995 July 23
!!!YED: 1995 August 31
